**kern	**silbe
*ICvox	*
=1	=1
*A:	*
*M3/4	*
*clefG2	*
2.r	.
=2	=2
2.r	.
=3	=3
2.r	.
=4	=4
2r	.
8r	.
8E	I'll
=5	=5
8e	al-
[8e	-ways
4.e]	_
8f#	re-
=6	=6
8e	-mem-
[8c#	-ber
4c#]	_
8r	.
8c#	the
=7	=7
2F#	song
8A	they
8d	were
=8	=8
8c#	pla-
4.B	-ying
8r	.
8E	The
=9	=9
8F#	first
4.A	time
8F#	we
[8G#	danced
=10	=10
4G#]	_
8r	.
8d	and
4f#	I
=11	=11
2e	knew
4r	.
=12	=12
2r	.
8c#	As
8d	we
=13	=13
4e	swayed
4.e	to
8f#	the
=14	=14
8e	mu-
8d	-sic,
4r	.
8r	.
8c#	and
=15	=15
2F#	held
8A	to
8d	each
=16	=16
8c#	o-
4.B	-ther,
4r	.
=17	=17
4F#	I
4G#	fell
8A	in
[8c#	love
=18	=18
2c#]	_
4B	with
=19	=19
2A	you
4r	.
=20	=20
2.r	.
=21	=21
2r	.
8r	.
8G#	Could
=22	=22
4A	I
4G#	have
4B	this
=23	=23
4A	dance
4r	.
8F#	for
8G#	the
=24	=24
4A	rest
4F#	of
4E	my
=25	=25
4F#	life,
4r	.
8r	.
8E	Could
=26	=26
8G#	you
[8G#	be
4.G#]	_
8G#	my
=27	=27
8A	part-
4.G#	-ner
4r	.
=28	=28
4F#	e
4G#	_
8A	ry
[8B	night,
=29	=29
4.B]	_
8r	.
4r	.
=30	=30
4c#	when
4.c#	we're
8c#	to-
=31	=31
8d	-ge-
4.c#	-ther
4c#	it
=32	=32
2A	feels
4c#	so
=33	=33
4.A	right
8r	.
8r	.
8B	Could
=34	=34
4c#	I
4B	have
8A	this
[8E	dance
=35	=35
4E]	_
4r	.
8B	for
8c#	the
=36	=36
4d	rest
4c#	of
4B	my
=37	=37
2A	life
4r	.
=38	=38
2r	.
8r	.
8E	I'll
=39	=39
8e	al-
[8e	-ways
4.e]	_
8f#	re-
=40	=40
8e	-mem-
[8c#	-ber
4c#]	_
4r	.
=41	=41
4F#	that
4A	ma-
8d	-gic
[8c#	mo-
=42	=42
8c#]	_
4.B	-ment,
8r	.
8E	When
=43	=43
8F#	I
4.A	held
8F#	you
[8G#	close
=44	=44
4G#]	_
4r	.
4f#	to
=45	=45
2e	me
4r	.
=46	=46
2r	.
8r	.
8E	As
=47	=47
8e	we
[8e	move
4.e]	_
8f#	to-
=48	=48
8e	-ge-
8d	-ther,
4c#	_
4r	.
=49	=49
4F#	I
4.A	knew
8d	for-
=50	=50
8c#	-e-
4.B	-ver,
4r	.
=51	=51
4F#	you're
4G#	all
4A	I'll
=52	=52
2c#	e-
4B	-ver
=53	=53
2A	need
4r	.
=54	=54
2r	.
8r	.
8G#	Could
=55	=55
4A	I
4G#	have
4B	this
=56	=56
4A	dance
4r	.
8F#	for
8G#	the
=57	=57
4A	rest
4F#	of
4E	my
=58	=58
4F#	life,
4r	.
8r	.
8E	Could
=59	=59
8G#	you
[8G#	be
4.G#]	_
8G#	my
=60	=60
8A	part-
4.G#	-ner
4r	.
=61	=61
4F#	e
4G#	_
8A	ry
[8B	night,
=62	=62
4.B]	_
8r	.
4r	.
=63	=63
4c#	when
4.c#	we're
8c#	to-
=64	=64
8d	-ge-
4.c#	-ther
4c#	it
=65	=65
2A	feels
4c#	so
=66	=66
4.A	right
8r	.
8r	.
8B	Could
=67	=67
4c#	I
4B	have
8A	this
[8E	dance
=68	=68
4E]	_
4r	.
8B	for
8c#	the
=69	=69
4d	rest
4c#	of
4B	my
=70	=70
2A	life
4r	.
=71	=71
2r	.
8r	.
8G#	Could
=72	=72
4A	I
4G#	have
4B	this
=73	=73
4A	dance
4r	.
8F#	for
8G#	the
=74	=74
4A	rest
4F#	of
4E	my
=75	=75
4F#	life,
4r	.
8r	.
8E	Could
=76	=76
8G#	you
[8G#	be
4.G#]	_
8G#	my
=77	=77
8A	part-
4.G#	-ner
4r	.
=78	=78
4F#	e
4G#	_
8A	ry
[8B	night,
=79	=79
4.B]	_
8r	.
4r	.
=80	=80
4c#	when
4.c#	we're
8c#	to-
=81	=81
8d	-ge-
4.c#	-ther
4c#	it
=82	=82
2A	feels
4c#	so
=83	=83
4.A	right
8r	.
8r	.
8B	Could
=84	=84
4c#	I
4B	have
8A	this
[8E	dance
=85	=85
4E]	_
4r	.
8B	for
8c#	the
=86	=86
2.d	rest
=87	=87
2c#	of
4c#	my
=88	=88
8B	life
[8A	_
2A]	_
=89	=89
2.r	.
=90	=90
2.r	.
=91	=91
2.r	.
=92	=92
2.r	.
*-	*-
!!!ENC: Nathaniel Condit-Schultz